X:12821
T:Augusten-Schottisch  BbEb  (st06816)
T:Hanny Christen. Bd.V  Basel II, Jura. S.12  (st06816) orig. Bb,Eb
S: Basel II. Tänze aus Augst. S.6-42.
S:Überliefert durch Erwin Baumgartner (*1878) und Hans Tschudin (*1886)
%%MIDI program 21
R:Schottisch
M:2/4
L:1/8
K:Bb %%MIDI gchordon
"Bb"dF dF | "F7"dc c/d/e | ag gf | "Bb"gf f/d/B | dF dF | "F7"dc c/d/e | gf d'>c' | "Bb"bb bz :| 
"C7"c/c/c/c/ cG | "F"c/c/c/c/ cA | "C7"cb ag | "F"gf f/c/A | "C7"c/c/c/c/ cG | "F"c/c/c/c/ cA | "C7"cb ag | "F"f2"F7"e2 | 
"Bb"dF dF | "F7"dc c/d/e | ag gf | "Bb"gf f/d/B | dF dF | "F7"dc c/d/e | gf d'>c' | "Bb"bb bz || [K:Eb]
("Eb"GB) eG | ("Bb7"GF) F/G/A | (df) ad | ("Eb"fe) e/B/G | (GB) eG | ("Bb7"GF) F/G/A | ba ag | "Eb"ag g/e/B | 
(GB) eG | ("Bb7"GF) F/G/A | (df) ad | ("Eb"fe) e/B/G | (GB) eG | ("Bb7"GF) F/G/A | ba f>d | "Eb"e{/f}e/d/ .e2 |] 
% st06816
% Nov 4, 2017

